src/icons/solid/media/share-external.svg

<svg width="24" height="24" viewBox="0 0 24 24" fill="none" xmlns="http://www.w3.org/2000/svg">
<g clip-path="url(#clip0_4333_259)">
<path d="M12.3389 5.125C12.582 5.125 12.8154 5.22165 12.9873 5.39356C13.1592 5.56546 13.2559 5.79888 13.2559 6.04199C13.2558 6.28491 13.159 6.51764 12.9873 6.68945C12.8154 6.86136 12.582 6.95801 12.3389 6.95801H2.83301V21.167H17.042V11.6514C17.0421 11.4084 17.1387 11.1757 17.3105 11.0039C17.4824 10.8321 17.715 10.7354 17.958 10.7354L18.0488 10.7393C18.2587 10.7601 18.456 10.8535 18.6064 11.0039C18.7782 11.1757 18.8749 11.4084 18.875 11.6514V21.2764C18.875 21.7334 18.6933 22.1719 18.3701 22.4951C18.0469 22.8183 17.6084 23 17.1514 23H2.71387C2.25865 22.9975 1.82306 22.8148 1.50195 22.4922C1.18075 22.1693 0.999994 21.7318 1 21.2764V6.83887C1.00008 6.38435 1.18056 5.94835 1.50195 5.62695C1.82335 5.30556 2.25935 5.12508 2.71387 5.125H12.3389Z" fill="#3C3B44"/>
<path d="M22.3125 1C22.4941 1.00238 22.6675 1.07569 22.7959 1.2041C22.9243 1.33252 22.9976 1.50591 23 1.6875V8.90137C23.0017 9.03575 22.963 9.16769 22.8896 9.28027C22.8163 9.39279 22.7114 9.48148 22.5879 9.53418C22.504 9.57074 22.4128 9.58915 22.3213 9.58887C22.2311 9.58925 22.1419 9.57167 22.0586 9.53711C21.9752 9.50251 21.8994 9.45189 21.8359 9.3877L18.8203 6.41797L10.1299 14.9697C9.95767 15.1357 9.72747 15.228 9.48828 15.2266C9.36712 15.2261 9.24736 15.2014 9.13574 15.1543C9.02422 15.1072 8.9227 15.0386 8.83789 14.9521C8.66722 14.7805 8.57135 14.5477 8.57129 14.3057C8.57129 14.0635 8.66716 13.8309 8.83789 13.6592L17.5 5.13379L14.4932 2.17285C14.3979 2.07772 14.3327 1.95632 14.3066 1.82422C14.2806 1.69205 14.2946 1.55492 14.3467 1.43066C14.3965 1.3036 14.4839 1.195 14.5967 1.11816C14.7095 1.0413 14.843 0.999814 14.9795 1H22.3125Z" fill="#3C3B44"/>
</g>
<defs>
<clipPath id="clip0_4333_259">
<rect width="24" height="24" fill="white"/>
</clipPath>
</defs>
</svg>

<svg xmlns="http://www.w3.org/2000/svg" width="24" height="24" fill="none" viewBox="0 0 24 24"><g fill="currentColor" clip-path="url(#a)"><path d="M12.339 5.125a.917.917 0 0 1 0 1.833H2.833v14.209h14.209v-9.516a.916.916 0 0 1 .916-.916l.09.004a.917.917 0 0 1 .827.912v9.625A1.724 1.724 0 0 1 17.151 23H2.714A1.723 1.723 0 0 1 1 21.276V6.84a1.714 1.714 0 0 1 1.714-1.714z"/><path d="M22.313 1a.697.697 0 0 1 .687.688V8.9a.68.68 0 0 1-.941.636.7.7 0 0 1-.223-.15L18.82 6.419l-8.69 8.552a.917.917 0 0 1-1.292-.018.92.92 0 0 1 0-1.293L17.5 5.134l-3.007-2.961a.68.68 0 0 1-.146-.742A.68.68 0 0 1 14.98 1z"/></g><defs><clipPath id="a"><path fill="currentColor" d="M0 0h24v24H0z"/></clipPath></defs></svg>
